svg/misc/pack.svg

<?xml version="1.0" encoding="UTF-8"?>
<svg xmlns="http://www.w3.org/2000/svg" xmlns:xlink="http://www.w3.org/1999/xlink" width="24" height="24" viewBox="0 0 24 24" version="1.1">
<g id="surface1">
<path style=" stroke:none;fill-rule:nonzero;fill:rgb(0%,0%,0%);fill-opacity:1;" d="M 12.164062 0 C 13.84375 0.8125 15.515625 1.625 17.191406 2.4375 C 18.929688 3.28125 20.671875 4.121094 22.414062 4.960938 C 22.496094 5.003906 22.582031 5.042969 22.667969 5.078125 C 22.917969 5.148438 23.09375 5.371094 23.105469 5.628906 C 23.117188 5.726562 23.125 5.832031 23.125 5.929688 C 23.125 9.992188 23.128906 14.046875 23.132812 18.105469 C 23.164062 18.488281 22.945312 18.84375 22.582031 18.984375 C 19.191406 20.613281 15.796875 22.25 12.414062 23.894531 C 12.164062 24.03125 11.863281 24.03125 11.613281 23.894531 C 8.222656 22.25 4.824219 20.609375 1.425781 18.976562 C 1.101562 18.851562 0.898438 18.53125 0.921875 18.1875 C 0.925781 14.070312 0.925781 9.949219 0.921875 5.828125 C 0.898438 5.484375 1.101562 5.167969 1.425781 5.039062 C 4.886719 3.375 8.347656 1.710938 11.808594 0.03125 C 11.820312 0.0273438 11.828125 0.0117188 11.835938 0 L 12.164062 0 M 2.148438 6.652344 L 2.148438 6.875 C 2.148438 10.503906 2.148438 14.132812 2.148438 17.757812 C 2.132812 17.894531 2.222656 18.023438 2.355469 18.070312 C 5.289062 19.480469 8.222656 20.894531 11.148438 22.316406 C 11.226562 22.351562 11.300781 22.382812 11.402344 22.429688 L 11.402344 22.132812 C 11.402344 18.550781 11.40625 14.972656 11.40625 11.390625 C 11.425781 11.214844 11.320312 11.046875 11.152344 10.988281 C 8.238281 9.585938 5.324219 8.183594 2.417969 6.773438 C 2.339844 6.738281 2.265625 6.707031 2.148438 6.652344 M 12.617188 22.417969 C 12.714844 22.382812 12.777344 22.359375 12.839844 22.328125 C 15.796875 20.898438 18.75 19.476562 21.703125 18.046875 C 21.839844 17.988281 21.917969 17.847656 21.894531 17.699219 C 21.890625 14.105469 21.890625 10.511719 21.894531 6.914062 C 21.894531 6.832031 21.890625 6.75 21.882812 6.640625 C 21.78125 6.6875 21.710938 6.71875 21.640625 6.753906 C 20.5625 7.273438 19.484375 7.796875 18.402344 8.3125 C 18.257812 8.363281 18.164062 8.507812 18.179688 8.660156 C 18.191406 9.726562 18.179688 10.789062 18.1875 11.851562 C 18.210938 12.070312 18.128906 12.277344 17.972656 12.429688 C 17.8125 12.585938 17.570312 12.632812 17.363281 12.542969 C 17.117188 12.453125 16.957031 12.21875 16.964844 11.960938 C 16.964844 11.078125 16.964844 10.195312 16.964844 9.308594 C 16.964844 9.230469 16.957031 9.148438 16.953125 9.035156 C 16.855469 9.078125 16.785156 9.109375 16.714844 9.140625 C 15.429688 9.765625 14.140625 10.386719 12.847656 11.003906 C 12.691406 11.0625 12.597656 11.21875 12.621094 11.382812 C 12.628906 14.972656 12.628906 18.558594 12.621094 22.148438 Z M 16.324219 7.96875 C 16.261719 7.929688 16.238281 7.910156 16.207031 7.898438 C 13.277344 6.480469 10.339844 5.066406 7.410156 3.652344 C 7.296875 3.617188 7.175781 3.625 7.066406 3.675781 C 5.765625 4.292969 4.46875 4.921875 3.171875 5.550781 C 3.109375 5.582031 3.042969 5.617188 2.957031 5.664062 C 3.023438 5.707031 3.070312 5.738281 3.117188 5.761719 C 6.023438 7.167969 8.9375 8.574219 11.851562 9.976562 C 11.953125 10.015625 12.070312 10.015625 12.171875 9.96875 C 13.191406 9.492188 14.203125 8.996094 15.214844 8.503906 L 16.324219 7.96875 M 21.066406 5.671875 C 21.007812 5.640625 20.988281 5.625 20.972656 5.613281 C 18.027344 4.195312 15.089844 2.777344 12.148438 1.359375 C 12.042969 1.324219 11.929688 1.328125 11.828125 1.375 C 10.882812 1.824219 9.9375 2.28125 8.992188 2.742188 C 8.898438 2.789062 8.800781 2.835938 8.691406 2.894531 C 8.753906 2.933594 8.789062 2.960938 8.832031 2.976562 C 11.75 4.386719 14.667969 5.792969 17.589844 7.203125 C 17.695312 7.242188 17.804688 7.242188 17.910156 7.195312 C 18.675781 6.835938 19.429688 6.464844 20.191406 6.097656 L 21.070312 5.671875 "/>
</g>
</svg>

<?xml version="1.0" encoding="UTF-8"?>
<svg xmlns="http://www.w3.org/2000/svg" viewBox="0 0 24 24">
    <defs>
        <style>
            .a {
            stroke:none;
            fill-rule:nonzero;
            fill:currentColor;
            fill-opacity:1;
            }
        </style>
    </defs>
    <path class="a" d="m12.16 0 5.03 2.44a2150.1 2150.1 0 0 0 5.48 2.64c.25.07.42.3.44.55l.02.3v12.18a.86.86 0 0 1-.55.87L12.41 23.9a.83.83 0 0 1-.8 0L1.43 18.98a.79.79 0 0 1-.5-.8V5.84a.8.8 0 0 1 .5-.8c3.46-1.66 6.92-3.32 10.38-5l.03-.03h.32M2.15 6.65v11.11a.3.3 0 0 0 .2.31c2.94 1.41 5.87 2.82 8.8 4.25l.25.11V11.39a.38.38 0 0 0-.25-.4c-2.91-1.4-5.83-2.8-8.73-4.22l-.27-.12m10.47 15.77a2 2 0 0 0 .22-.1l8.86-4.27c.14-.06.22-.2.2-.35a4963.29 4963.29 0 0 1-.02-11.06l-.24.11-3.24 1.56a.34.34 0 0 0-.22.35v3.2a.7.7 0 0 1-.2.57.57.57 0 0 1-.62.11.6.6 0 0 1-.4-.58V9.04l-.25.1c-1.28.63-2.57 1.25-3.86 1.86a.35.35 0 0 0-.23.38v10.77Zm3.7-14.45-.11-.07-8.8-4.25a.48.48 0 0 0-.34.03c-1.3.61-2.6 1.24-3.9 1.87l-.21.11a4534.58 4534.58 0 0 0 8.9 4.31c.1.05.21.05.31 0C13.2 9.49 14.2 9 15.21 8.5l1.11-.53m4.75-2.3-.1-.06-8.82-4.25a.43.43 0 0 0-.32.01L8.99 2.75l-.3.15.14.09L17.6 7.2c.1.04.21.04.32 0 .77-.36 1.52-.74 2.28-1.1l.88-.43"/>
</svg>
